icons/default/Question.svg

<path
	d="M22 7.33325C16.9364 7.33325 12.8334 11.4363 12.8334 16.4999C12.8334 16.9861 13.0265 17.4525 13.3703 17.7963C13.7142 18.1401 14.1805 18.3333 14.6667 18.3333C15.1529 18.3333 15.6193 18.1401 15.9631 17.7963C16.3069 17.4525 16.5 16.9861 16.5 16.4999C16.5 13.4603 18.9604 10.9999 22 10.9999C25.0397 10.9999 27.5 13.4603 27.5 16.4999C27.5 17.9959 27.1352 18.8723 26.697 19.4864C26.2167 20.1556 25.5512 20.6561 24.629 21.2923L24.4164 21.4353C23.5969 21.9963 22.5409 22.7168 21.7232 23.7214C20.757 24.9094 20.1667 26.4109 20.1667 28.4166V29.3333C20.1667 29.8195 20.3599 30.2858 20.7037 30.6296C21.0475 30.9734 21.5138 31.1666 22 31.1666C22.4863 31.1666 22.9526 30.9734 23.2964 30.6296C23.6402 30.2858 23.8334 29.8195 23.8334 29.3333V28.4166C23.8334 27.2139 24.1597 26.5393 24.5667 26.0351C25.0379 25.4594 25.6722 25.0231 26.609 24.3796L26.7062 24.3118C27.6155 23.6884 28.7834 22.8708 29.6762 21.6204C30.6167 20.3151 31.1667 18.6688 31.1667 16.4999C31.1667 11.4363 27.0637 7.33325 22 7.33325Z"
	fill="black" />
<path
	d="M22 38.9583C22.6078 38.9583 23.1907 38.7169 23.6205 38.2871C24.0503 37.8574 24.2917 37.2745 24.2917 36.6667C24.2917 36.0589 24.0503 35.476 23.6205 35.0462C23.1907 34.6164 22.6078 34.375 22 34.375C21.3923 34.375 20.8094 34.6164 20.3796 35.0462C19.9498 35.476 19.7084 36.0589 19.7084 36.6667C19.7084 37.2745 19.9498 37.8574 20.3796 38.2871C20.8094 38.7169 21.3923 38.9583 22 38.9583V38.9583Z"
	fill="black" />

<path d="M22 7.333a9.165 9.165 0 0 0-9.167 9.167 1.833 1.833 0 1 0 3.667 0c0-3.04 2.46-5.5 5.5-5.5s5.5 2.46 5.5 5.5c0 1.496-.365 2.372-.803 2.986-.48.67-1.146 1.17-2.068 1.806l-.213.143c-.82.561-1.875 1.282-2.693 2.286-.966 1.188-1.556 2.69-1.556 4.696v.916a1.833 1.833 0 0 0 3.666 0v-.916c0-1.203.327-1.878.734-2.382.47-.576 1.105-1.012 2.042-1.655l.097-.068c.91-.624 2.077-1.441 2.97-2.692.94-1.305 1.49-2.951 1.49-5.12A9.165 9.165 0 0 0 22 7.333Z"/><path d="M22 38.958a2.292 2.292 0 1 0 0-4.583 2.292 2.292 0 0 0 0 4.583Z"/>
